svgs/sharp-light/plate-utensils.svg

<svg xmlns="http://www.w3.org/2000/svg" viewBox="0 0 640 512"><!--! Font Awesome Pro 6.6.0 by @fontawesome - https://fontawesome.com License - https://fontawesome.com/license (Commercial License) Copyright 2024 Fonticons, Inc. --><path d="M32 16L0 16 0 32 0 176c0 26.5 21.5 48 48 48l16 0 0 256 0 16 32 0 0-16 0-256 16 0c26.5 0 48-21.5 48-48l0-144 0-16-32 0 0 16 0 144c0 8.8-7.2 16-16 16l-16 0L96 32l0-16L64 16l0 16 0 160-16 0c-8.8 0-16-7.2-16-16L32 32l0-16zm608 0s-13.6 1.7-32 8.4C570.1 38.4 512 73.8 512 160l0 128 0 32 32 0 64 0 0 160 0 16 32 0 0-16 0-160 0-16 0-16 0-239.5L640 16zM608 288l-64 0 0-128c0-50.8 24.4-77.5 49-92.9c5-3.2 10.1-5.8 15-8.1l0 229zM498 78.9C455.3 39.8 398.4 16 336 16c-54 0-103.9 17.9-144 48l0 41.9C229.4 70 280.1 48 336 48c58.8 0 112 24.4 149.8 63.7c3-11.9 7.2-22.8 12.2-32.8zM520.6 352C485.9 418.6 416.2 464 336 464c-78 0-146-42.9-181.6-106.4L131.1 381c42.2 69 118.2 115 204.9 115c98.4 0 183-59.2 220-144l-12 0-23.4 0zM480 256a144 144 0 1 0 -288 0 144 144 0 1 0 288 0zm-256 0a112 112 0 1 1 224 0 112 112 0 1 1 -224 0z"/></svg>

<svg xmlns="http://www.w3.org/2000/svg" viewBox="0 0 640 512"><!--! Font Awesome Pro 6.4.2 by @fontawesome - https://fontawesome.com License - https://fontawesome.com/license (Commercial License) Copyright 2023 Fonticons, Inc. --><path d="M32 16H0V32 176c0 26.5 21.5 48 48 48H64V480v16H96V480 224h16c26.5 0 48-21.5 48-48V32 16H128V32 176c0 8.8-7.2 16-16 16H96V32 16H64V32 192H48c-8.8 0-16-7.2-16-16V32 16zm608 0s-13.6 1.7-32 8.4C570.1 38.4 512 73.8 512 160V288v32h32 64V480v16h32V480 320 304 288 48.5 16zM608 288H544V160c0-50.8 24.4-77.5 49-92.9c5-3.2 10.1-5.8 15-8.1V288zM498 78.9C455.3 39.8 398.4 16 336 16c-54 0-103.9 17.9-144 48v41.9C229.4 70 280.1 48 336 48c58.8 0 112 24.4 149.8 63.7c3-11.9 7.2-22.8 12.2-32.8zM520.6 352C485.9 418.6 416.2 464 336 464c-78 0-146-42.9-181.6-106.4L131.1 381c42.2 69 118.2 115 204.9 115c98.4 0 183-59.2 220-144H544 520.6zM480 256a144 144 0 1 0 -288 0 144 144 0 1 0 288 0zm-256 0a112 112 0 1 1 224 0 112 112 0 1 1 -224 0z"/></svg>
